img/Star.svg

<svg width="19" height="18" viewBox="0 0 19 18" fill="none" xmlns="http://www.w3.org/2000/svg">
<path d="M8.63024 0.533003C9.01342 -0.142372 9.98658 -0.142372 10.3698 0.533003L12.6209 4.50077C12.7634 4.75183 13.0073 4.9291 13.2901 4.98699L17.7593 5.90185C18.5201 6.05757 18.8208 6.98311 18.2969 7.55624L15.219 10.9233C15.0242 11.1364 14.931 11.4232 14.9633 11.71L15.4743 16.2432C15.5613 17.0148 14.774 17.5868 14.067 17.2657L9.9136 15.3789C9.65079 15.2595 9.34921 15.2595 9.0864 15.3789L4.93299 17.2657C4.22601 17.5868 3.4387 17.0148 3.52568 16.2432L4.03665 11.71C4.06899 11.4232 3.97579 11.1364 3.78103 10.9233L0.703108 7.55624C0.179197 6.98311 0.479921 6.05757 1.24065 5.90185L5.70987 4.98699C5.99266 4.9291 6.23664 4.75183 6.37909 4.50077L8.63024 0.533003Z" fill="#F2C94C"/>
</svg>

<svg width="19" height="18" fill="none" xmlns="http://www.w3.org/2000/svg"><path d="M8.63.533a1 1 0 011.74 0l2.25 3.968a1 1 0 00.67.486l4.47.915a1 1 0 01.537 1.654l-3.078 3.367a1 1 0 00-.256.787l.511 4.533a1 1 0 01-1.407 1.023l-4.153-1.887a1 1 0 00-.828 0l-4.153 1.887a1 1 0 01-1.407-1.023l.51-4.533a1 1 0 00-.255-.787L.703 7.556a1 1 0 01.538-1.654l4.469-.915a1 1 0 00.67-.486L8.63.533z" fill="#F2C94C"/></svg>
